X:558
T: NACHTIGALL ICH HOER DIR SINGEN
N: E0529A
O: Europa, Mitteleuropa, Deutschland
R: Liebes - Lied
M: 3/4
L: 1/16
K: F
 | C3CF4A4 | A2G2G2F2z2
C2 | F3AA4c4 | c2B2B2A2z4 |
A2cAF4c4 | BcdBG4z4 |
C2E2G4B4 | A2cAF6E2 |
F3AG3BA4
B3dc4A4 | cBAGG4F2z2

@@@ Tune index: 4208
